**harm	**harte	**timestamp	**phrase	**leadinstrument	**kern
*M4/4	*M4/4	*	*	*	*
*A:	*A:	*	*	*	*A:
1r;	N	0	.	r	1r;
1r;	N	0.255	.	r	1r;
1r;	N	7.477	.	r	1r;
1r;	N	8.659	.	r	1r;
1r;	N	9.84	.	r	1r;
1r;	N	11.022	.	r	1r;
1r;	N	12.204	.	r	1r;
1r;	N	13.385	.	r	1r;
1r;	N	14.567	.	r	1r;
1r;	N	15.749	.	r	1r;
=1	=1	=1	=1	=1	=1
*>B_	*>B_	*>B_	*>B_	*>B_	*>B_
1I	A:maj	16.93	newline	guitar	1A 1cc# 1ee
=2	=2	=2	=2	=2	=2
1I	A:maj	18.103	.	guitar	1A 1cc# 1ee
=3	=3	=3	=3	=3	=3
1I	A:maj	19.275	.	guitar	1A 1cc# 1ee
=4	=4	=4	=4	=4	=4
1I	A:maj	20.447	.	guitar	1A 1cc# 1ee
=5	=5	=5	=5	=5	=5
1-VII	G:maj	21.619	.	guitar	1G 1b 1dd
=6	=6	=6	=6	=6	=6
1IV	D:maj	22.792	.	guitar	1D 1f# 1a
=7	=7	=7	=7	=7	=7
1I	A:maj	23.964	.	guitar	1A 1cc# 1ee
=8	=8	=8	=8	=8	=8
1I	A:maj	25.136	.	guitar	1A 1cc# 1ee
=9	=9	=9	=9	=9	=9
*>C_verse	*>C_verse	*>C_verse	*>C_verse	*>C_verse	*>C_verse
1I	A:maj	26.309	newline	voice	1A 1cc# 1ee
=10	=10	=10	=10	=10	=10
1I	A:maj	27.468	.	voice	1A 1cc# 1ee
=11	=11	=11	=11	=11	=11
1I	A:maj	28.627	.	voice	1A 1cc# 1ee
=12	=12	=12	=12	=12	=12
1Id	A:maj/7	29.787	.	voice	1a 1cc# 1ee
=13	=13	=13	=13	=13	=13
1vi	F#:min	30.946	.	voice	1F# 1a 1cc#
=14	=14	=14	=14	=14	=14
1vi	F#:min	32.105	.	voice	1F# 1a 1cc#
=15	=15	=15	=15	=15	=15
1vi	F#:min	33.265	.	voice	1F# 1a 1cc#
=16	=16	=16	=16	=16	=16
1vi7d	F#:min7/b7	34.424	.	voice	1f# 1a 1cc# 1E
=17	=17	=17	=17	=17	=17
1IV	D:maj	35.583	.	voice	1D 1f# 1a
=18	=18	=18	=18	=18	=18
1IV	D:maj	36.743	.	voice	1D 1f# 1a
=19	=19	=19	=19	=19	=19
1IV	D:maj	37.902	.	voice	1D 1f# 1a
=20	=20	=20	=20	=20	=20
1IVd	D:maj/7	39.061	.	voice	1d 1f# 1a
=21	=21	=21	=21	=21	=21
1I	A:maj	40.221	newline	voice	1A 1cc# 1ee
=22	=22	=22	=22	=22	=22
1I	A:maj	41.376	.	voice	1A 1cc# 1ee
=23	=23	=23	=23	=23	=23
1I	A:maj	42.531	.	voice	1A 1cc# 1ee
=24	=24	=24	=24	=24	=24
1Id	A:maj/7	43.686	.	voice	1a 1cc# 1ee
=25	=25	=25	=25	=25	=25
1vi	F#:min	44.841	.	voice	1F# 1a 1cc#
=26	=26	=26	=26	=26	=26
1vi	F#:min	45.996	.	voice	1F# 1a 1cc#
=27	=27	=27	=27	=27	=27
1vi	F#:min	47.151	.	voice	1F# 1a 1cc#
=28	=28	=28	=28	=28	=28
1vi7d	F#:min7/b7	48.307	.	voice	1f# 1a 1cc# 1E
=29	=29	=29	=29	=29	=29
1IV	D:maj	49.462	.	voice	1D 1f# 1a
=30	=30	=30	=30	=30	=30
1IV	D:maj	50.617	.	voice	1D 1f# 1a
=31	=31	=31	=31	=31	=31
1IV	D:maj	51.772	.	voice	1D 1f# 1a
=32	=32	=32	=32	=32	=32
1IVd	D:maj/7	52.927	.	voice	1d 1f# 1a
=33	=33	=33	=33	=33	=33
1I	A:maj	54.082	newline	voice	1A 1cc# 1ee
=34	=34	=34	=34	=34	=34
1I	A:maj	55.236	.	voice	1A 1cc# 1ee
=35	=35	=35	=35	=35	=35
1I	A:maj	56.389	.	voice	1A 1cc# 1ee
=36	=36	=36	=36	=36	=36
1Id	A:maj/7	57.542	.	voice	1a 1cc# 1ee
=37	=37	=37	=37	=37	=37
1vi	F#:min	58.695	.	voice	1F# 1a 1cc#
=38	=38	=38	=38	=38	=38
1II7	B:7	59.848	.	voice	1B 1dd# 1ff# 1aa
=39	=39	=39	=39	=39	=39
1-VII	G:maj	61.001	.	voice	1G 1b 1dd
=40	=40	=40	=40	=40	=40
2I	A:maj	62.155	.	voice	2A 2cc# 2ee
2Id	A:maj/7	62.731	.	voice	2a 2cc# 2ee
=41	=41	=41	=41	=41	=41
1vi	F#:min	63.308	.	voice	1F# 1a 1cc#
=42	=42	=42	=42	=42	=42
1II	B:maj	64.461	.	voice	1B 1dd# 1ff#
=43	=43	=43	=43	=43	=43
1-VII	G:maj	65.614	.	voice	1G 1b 1dd
=44	=44	=44	=44	=44	=44
1-VII	G:maj	66.767	.	voice	1G 1b 1dd
=45	=45	=45	=45	=45	=45
1vi	F#:min	67.92	.	voice	1F# 1a 1cc#
=46	=46	=46	=46	=46	=46
1vi	F#:min	69.073	.	voice	1F# 1a 1cc#
=47	=47	=47	=47	=47	=47
*>D_chorus	*>D_chorus	*>D_chorus	*>D_chorus	*>D_chorus	*>D_chorus
1I	A:maj	70.227	newline	voice	1A 1cc# 1ee
=48	=48	=48	=48	=48	=48
1I	A:maj	71.389	.	voice	1A 1cc# 1ee
=49	=49	=49	=49	=49	=49
1V	E:maj	72.551	.	voice	1E 1g# 1b
=50	=50	=50	=50	=50	=50
1V	E:maj	73.713	.	voice	1E 1g# 1b
=51	=51	=51	=51	=51	=51
1vi	F#:min	74.875	.	voice	1F# 1a 1cc#
=52	=52	=52	=52	=52	=52
1vi	F#:min	76.037	.	voice	1F# 1a 1cc#
=53	=53	=53	=53	=53	=53
1IV	D:maj	77.2	.	voice	1D 1f# 1a
=54	=54	=54	=54	=54	=54
1IV	D:maj	78.362	.	voice	1D 1f# 1a
=55	=55	=55	=55	=55	=55
1I	A:maj	79.524	newline	voice	1A 1cc# 1ee
=56	=56	=56	=56	=56	=56
1I	A:maj	80.694	.	voice	1A 1cc# 1ee
=57	=57	=57	=57	=57	=57
1V	E:maj	81.865	.	voice	1E 1g# 1b
=58	=58	=58	=58	=58	=58
1V	E:maj	83.035	.	voice	1E 1g# 1b
=59	=59	=59	=59	=59	=59
1vi	F#:min	84.205	.	voice	1F# 1a 1cc#
=60	=60	=60	=60	=60	=60
1vi	F#:min	85.376	.	voice	1F# 1a 1cc#
=61	=61	=61	=61	=61	=61
1IV	D:maj	86.546	.	voice	1D 1f# 1a
=62	=62	=62	=62	=62	=62
1IV	D:maj	87.716	.	voice	1D 1f# 1a
=63	=63	=63	=63	=63	=63
*>C_verse	*>C_verse	*>C_verse	*>C_verse	*>C_verse	*>C_verse
1I	A:maj	88.887	newline	voice	1A 1cc# 1ee
=64	=64	=64	=64	=64	=64
1I	A:maj	90.055	.	voice	1A 1cc# 1ee
=65	=65	=65	=65	=65	=65
1I	A:maj	91.223	.	voice	1A 1cc# 1ee
=66	=66	=66	=66	=66	=66
1Id	A:maj/7	92.391	.	voice	1a 1cc# 1ee
=67	=67	=67	=67	=67	=67
1vi	F#:min	93.56	.	voice	1F# 1a 1cc#
=68	=68	=68	=68	=68	=68
1vi	F#:min	94.728	.	voice	1F# 1a 1cc#
=69	=69	=69	=69	=69	=69
1vi	F#:min	95.896	.	voice	1F# 1a 1cc#
=70	=70	=70	=70	=70	=70
1vi7d	F#:min7/b7	97.064	.	voice	1f# 1a 1cc# 1E
=71	=71	=71	=71	=71	=71
1IV	D:maj	98.233	.	voice	1D 1f# 1a
=72	=72	=72	=72	=72	=72
1IV	D:maj	99.401	.	voice	1D 1f# 1a
=73	=73	=73	=73	=73	=73
1IV	D:maj	100.569	.	voice	1D 1f# 1a
=74	=74	=74	=74	=74	=74
1IVd	D:maj/7	101.737	.	voice	1d 1f# 1a
=75	=75	=75	=75	=75	=75
1I	A:maj	102.906	newline	voice	1A 1cc# 1ee
=76	=76	=76	=76	=76	=76
1I	A:maj	104.07	.	voice	1A 1cc# 1ee
=77	=77	=77	=77	=77	=77
1I	A:maj	105.234	.	voice	1A 1cc# 1ee
=78	=78	=78	=78	=78	=78
1Id	A:maj/7	106.398	.	voice	1a 1cc# 1ee
=79	=79	=79	=79	=79	=79
1vi	F#:min	107.563	.	voice	1F# 1a 1cc#
=80	=80	=80	=80	=80	=80
1II7	B:7	108.727	.	voice	1B 1dd# 1ff# 1aa
=81	=81	=81	=81	=81	=81
1-VII	G:maj	109.891	.	voice	1G 1b 1dd
=82	=82	=82	=82	=82	=82
2I	A:maj	111.056	.	voice	2A 2cc# 2ee
2Id	A:maj/7	111.638	.	voice	2a 2cc# 2ee
=83	=83	=83	=83	=83	=83
1vi	F#:min	112.22	.	voice	1F# 1a 1cc#
=84	=84	=84	=84	=84	=84
1II	B:maj	113.384	.	voice	1B 1dd# 1ff#
=85	=85	=85	=85	=85	=85
1-VII	G:maj	114.548	.	voice	1G 1b 1dd
=86	=86	=86	=86	=86	=86
1-VII	G:maj	115.713	.	voice	1G 1b 1dd
=87	=87	=87	=87	=87	=87
1vi	F#:min	116.877	.	voice	1F# 1a 1cc#
=88	=88	=88	=88	=88	=88
1vi	F#:min	118.041	.	voice	1F# 1a 1cc#
=89	=89	=89	=89	=89	=89
*>D_chorus	*>D_chorus	*>D_chorus	*>D_chorus	*>D_chorus	*>D_chorus
1I	A:maj	119.206	newline	voice	1A 1cc# 1ee
=90	=90	=90	=90	=90	=90
1I	A:maj	120.372	.	voice	1A 1cc# 1ee
=91	=91	=91	=91	=91	=91
1V	E:maj	121.537	.	voice	1E 1g# 1b
=92	=92	=92	=92	=92	=92
1V	E:maj	122.703	.	voice	1E 1g# 1b
=93	=93	=93	=93	=93	=93
1vi	F#:min	123.869	.	voice	1F# 1a 1cc#
=94	=94	=94	=94	=94	=94
1vi	F#:min	125.035	.	voice	1F# 1a 1cc#
=95	=95	=95	=95	=95	=95
1IV	D:maj	126.201	.	voice	1D 1f# 1a
=96	=96	=96	=96	=96	=96
1IV	D:maj	127.367	.	voice	1D 1f# 1a
=97	=97	=97	=97	=97	=97
1I	A:maj	128.533	newline	voice	1A 1cc# 1ee
=98	=98	=98	=98	=98	=98
1I	A:maj	129.696	.	voice	1A 1cc# 1ee
=99	=99	=99	=99	=99	=99
1V	E:maj	130.859	.	voice	1E 1g# 1b
=100	=100	=100	=100	=100	=100
1V	E:maj	132.021	.	voice	1E 1g# 1b
=101	=101	=101	=101	=101	=101
1vi	F#:min	133.184	.	voice	1F# 1a 1cc#
=102	=102	=102	=102	=102	=102
1vi	F#:min	134.347	.	voice	1F# 1a 1cc#
=103	=103	=103	=103	=103	=103
1IV	D:maj	135.51	.	voice	1D 1f# 1a
=104	=104	=104	=104	=104	=104
1IV	D:maj	136.673	.	voice	1D 1f# 1a
=105	=105	=105	=105	=105	=105
*>_solo	*>_solo	*>_solo	*>_solo	*>_solo	*>_solo
1I	A:maj	137.835	newline	voice	1A 1cc# 1ee
=106	=106	=106	=106	=106	=106
1I	A:maj	139.006	.	voice	1A 1cc# 1ee
=107	=107	=107	=107	=107	=107
1V	E:maj	140.176	.	voice	1E 1g# 1b
=108	=108	=108	=108	=108	=108
1V	E:maj	141.347	.	voice	1E 1g# 1b
=109	=109	=109	=109	=109	=109
1vi	F#:min	142.517	.	voice	1F# 1a 1cc#
=110	=110	=110	=110	=110	=110
1vi	F#:min	143.688	.	voice	1F# 1a 1cc#
=111	=111	=111	=111	=111	=111
1IV	D:maj	144.858	.	voice	1D 1f# 1a
=112	=112	=112	=112	=112	=112
1IV	D:maj	146.029	.	voice	1D 1f# 1a
=113	=113	=113	=113	=113	=113
1I	A:maj	147.199	newline	voice	1A 1cc# 1ee
=114	=114	=114	=114	=114	=114
1I	A:maj	148.368	.	voice	1A 1cc# 1ee
=115	=115	=115	=115	=115	=115
1V	E:maj	149.537	.	voice	1E 1g# 1b
=116	=116	=116	=116	=116	=116
1V	E:maj	150.706	.	voice	1E 1g# 1b
=117	=117	=117	=117	=117	=117
1vi	F#:min	151.874	.	voice	1F# 1a 1cc#
=118	=118	=118	=118	=118	=118
1vi	F#:min	153.043	.	voice	1F# 1a 1cc#
=119	=119	=119	=119	=119	=119
1IV	D:maj	154.212	.	voice	1D 1f# 1a
=120	=120	=120	=120	=120	=120
1IV	D:maj	155.381	.	voice	1D 1f# 1a
=121	=121	=121	=121	=121	=121
1I	A:maj	156.549	newline	voice	1A 1cc# 1ee
=122	=122	=122	=122	=122	=122
1I	A:maj	157.713	.	voice	1A 1cc# 1ee
=123	=123	=123	=123	=123	=123
1V	E:maj	158.877	.	voice	1E 1g# 1b
=124	=124	=124	=124	=124	=124
1V	E:maj	160.041	.	voice	1E 1g# 1b
=125	=125	=125	=125	=125	=125
1vi	F#:min	161.205	.	voice	1F# 1a 1cc#
=126	=126	=126	=126	=126	=126
1vi	F#:min	162.368	.	voice	1F# 1a 1cc#
=127	=127	=127	=127	=127	=127
1IV	D:maj	163.532	.	voice	1D 1f# 1a
=128	=128	=128	=128	=128	=128
1IV	D:maj	164.696	.	voice	1D 1f# 1a
=129	=129	=129	=129	=129	=129
*>C_verse	*>C_verse	*>C_verse	*>C_verse	*>C_verse	*>C_verse
1I	A:maj	165.86	newline	voice	1A 1cc# 1ee
=130	=130	=130	=130	=130	=130
1I	A:maj	167.018	.	voice	1A 1cc# 1ee
=131	=131	=131	=131	=131	=131
1I	A:maj	168.176	.	voice	1A 1cc# 1ee
=132	=132	=132	=132	=132	=132
1Id	A:maj/7	169.334	.	voice	1a 1cc# 1ee
=133	=133	=133	=133	=133	=133
1vi	F#:min	170.492	.	voice	1F# 1a 1cc#
=134	=134	=134	=134	=134	=134
1vi	F#:min	171.65	.	voice	1F# 1a 1cc#
=135	=135	=135	=135	=135	=135
1vi	F#:min	172.807	.	voice	1F# 1a 1cc#
=136	=136	=136	=136	=136	=136
1vi7d	F#:min7/b7	173.965	.	voice	1f# 1a 1cc# 1E
=137	=137	=137	=137	=137	=137
1IV	D:maj	175.123	.	voice	1D 1f# 1a
=138	=138	=138	=138	=138	=138
1IV	D:maj	176.281	.	voice	1D 1f# 1a
=139	=139	=139	=139	=139	=139
1IV	D:maj	177.439	.	voice	1D 1f# 1a
=140	=140	=140	=140	=140	=140
1IVd	D:maj/7	178.597	.	voice	1d 1f# 1a
=141	=141	=141	=141	=141	=141
1I	A:maj	179.755	newline	voice	1A 1cc# 1ee
=142	=142	=142	=142	=142	=142
1I	A:maj	180.894	.	voice	1A 1cc# 1ee
=143	=143	=143	=143	=143	=143
1I	A:maj	182.033	.	voice	1A 1cc# 1ee
=144	=144	=144	=144	=144	=144
1Id	A:maj/7	183.172	.	voice	1a 1cc# 1ee
=145	=145	=145	=145	=145	=145
*>E_outro	*>E_outro	*>E_outro	*>E_outro	*>E_outro	*>E_outro
1I	A:maj	184.311	newline	voice	1A 1cc# 1ee
=146	=146	=146	=146	=146	=146
1r	N	185.476	.	voice	1r
=147	=147	=147	=147	=147	=147
1r	N	186.641	.	voice	1r
=148	=148	=148	=148	=148	=148
1r	N	187.806	.	voice	1r
=149	=149	=149	=149	=149	=149
1r	N	188.971	.	voice	1r
=150	=150	=150	=150	=150	=150
1r	N	190.136	.	voice	1r
=151	=151	=151	=151	=151	=151
1r	N	191.301	.	voice	1r
=152	=152	=152	=152	=152	=152
1r	N	192.466	.	voice	1r
=153	=153	=153	=153	=153	=153
1r	N	193.631	newline	voice	1r
=154	=154	=154	=154	=154	=154
1r	N	194.796	.	voice	1r
=155	=155	=155	=155	=155	=155
1r	N	195.96	.	voice	1r
=156	=156	=156	=156	=156	=156
1r	N	197.124	.	voice	1r
=157	=157	=157	=157	=157	=157
1r	N	198.289	.	voice	1r
=158	=158	=158	=158	=158	=158
1r	N	199.453	.	voice	1r
=159	=159	=159	=159	=159	=159
1r	N	200.618	.	voice	1r
=160	=160	=160	=160	=160	=160
1r	N	201.782	.	voice	1r
=161	=161	=161	=161	=161	=161
*>B_	*>B_	*>B_	*>B_	*>B_	*>B_
1I	A:maj	202.946	newline	guitar	1A 1cc# 1ee
=162	=162	=162	=162	=162	=162
1I	A:maj	204.106	.	guitar	1A 1cc# 1ee
=163	=163	=163	=163	=163	=163
1I	A:maj	205.266	.	guitar	1A 1cc# 1ee
=164	=164	=164	=164	=164	=164
1I	A:maj	206.426	.	guitar	1A 1cc# 1ee
=165	=165	=165	=165	=165	=165
1-VII	G:maj	207.586	.	guitar	1G 1b 1dd
=166	=166	=166	=166	=166	=166
1IV	D:maj	208.746	.	guitar	1D 1f# 1a
=167	=167	=167	=167	=167	=167
1I	A:maj	209.906	.	guitar	1A 1cc# 1ee
=168	=168	=168	=168	=168	=168
1I	A:maj	211.066	.	guitar	1A 1cc# 1ee
1r;	N	218.895	.	r	1r;
1r;	N	223.713	.	r	1r;
*-	*-	*-	*-	*-	*-
!!!OTL: I Want You To Want Me
!!!COC: Cheap Trick
!!!BillboardChartDate: 1979/07/28
!!!BillboardPeak: 7
!!!BillboardWeeksOnChart: 19
!!!SampleTargetRank: 7
!!!SampleActualRank: 7
!!!SampleID#: 0188
!!!RDF**harmony: **recip + pitch class of root + harmonic quality
!!!RDF**harte: Chris Harte's syntax, used by MIREX
!!!RDF**phrase: newline = linebreak in original McGill transcription
!!!RDF**timestamp: McGill audio timestamp in seconds
!!!RDF**leadinstrument: original McGill primary instrumentation annotation
!!!RDT: 2017/01/12/
!!!ENC: Nathaniel Condit-Schultz
!!!EST: Awating manual error checking and editing.
